packages/ui-solid/icons/calendar_24.svg

<svg width="24" height="24" viewBox="0 0 24 24" fill="none" xmlns="http://www.w3.org/2000/svg">
<path fill-rule="evenodd" clip-rule="evenodd" d="M7.76471 2.09998C8.26177 2.09998 8.66471 2.50292 8.66471 2.99998V3.90304C8.95136 3.8997 9.25938 3.89981 9.59257 3.89993C9.65603 3.89995 9.72041 3.89998 9.78572 3.89998H15.3353V2.99998C15.3353 2.50292 15.7382 2.09998 16.2353 2.09998C16.7324 2.09998 17.1353 2.50292 17.1353 2.99998V3.98672C19.2809 4.40611 20.9 6.29631 20.9 8.56468V14.6389C20.9 15.726 20.9 16.5967 20.8425 17.3005C20.7835 18.0231 20.6593 18.6487 20.3659 19.2245C19.8962 20.1465 19.1466 20.8961 18.2246 21.3659C17.6487 21.6593 17.0232 21.7834 16.3005 21.8425C15.5967 21.9 14.726 21.9 13.639 21.9H10.3611C9.27398 21.9 8.4033 21.9 7.69952 21.8425C6.97686 21.7834 6.3513 21.6593 5.77545 21.3659C4.85346 20.8961 4.10385 20.1465 3.63407 19.2245C3.34067 18.6487 3.21654 18.0231 3.15749 17.3005C3.09999 16.5967 3.1 15.726 3.10001 14.6389L3.10001 10.5857C3.10001 10.5204 3.09998 10.456 3.09996 10.3925C3.09942 8.91674 3.09906 7.93461 3.39813 7.1169C3.8938 5.76164 4.96167 4.69377 6.31693 4.1981C6.49101 4.13443 6.67255 4.08433 6.86471 4.04492V2.99998C6.86471 2.50292 7.26766 2.09998 7.76471 2.09998ZM6.86471 5.91534C6.04082 6.23956 5.39356 6.9014 5.08861 7.73517C4.94793 8.11983 4.91153 8.60368 4.90268 9.68569H19.1V8.56468C19.1 7.29695 18.2765 6.22155 17.1353 5.84421V6.59998C17.1353 7.09703 16.7324 7.49998 16.2353 7.49998C15.7382 7.49998 15.3353 7.09703 15.3353 6.59998V5.69998H9.78572C9.34655 5.69998 8.978 5.70085 8.66471 5.70497V6.59998C8.66471 7.09703 8.26177 7.49998 7.76471 7.49998C7.26766 7.49998 6.86471 7.09703 6.86471 6.59998V5.91534ZM19.1 11.4857H4.90001V14.6C4.90001 15.7349 4.90071 16.532 4.95151 17.1539C5.00146 17.7652 5.09532 18.1275 5.23789 18.4073C5.53509 18.9906 6.00933 19.4649 6.59264 19.7621C6.87244 19.9047 7.23475 19.9985 7.8461 20.0485C8.46796 20.0993 9.26505 20.1 10.4 20.1H13.6C14.735 20.1 15.5321 20.0993 16.1539 20.0485C16.7653 19.9985 17.1276 19.9047 17.4074 19.7621C17.9907 19.4649 18.4649 18.9906 18.7621 18.4073C18.9047 18.1275 18.9985 17.7652 19.0485 17.1539C19.0993 16.532 19.1 15.7349 19.1 14.6V11.4857Z" fill="#007AFF"/>
</svg>

<svg xmlns="http://www.w3.org/2000/svg" width="24" height="24" fill="none"><path fill="currentColor" fill-rule="evenodd" d="M7.765 2.1a.9.9 0 0 1 .9.9v.903q.428-.004.928-.003h5.743V3a.9.9 0 1 1 1.8 0v.987A4.666 4.666 0 0 1 20.9 8.565v6.074c0 1.087 0 1.958-.057 2.662-.06.722-.184 1.348-.477 1.924a4.9 4.9 0 0 1-2.141 2.14c-.576.294-1.202.418-1.925.478-.703.057-1.574.057-2.661.057h-3.278c-1.087 0-1.958 0-2.661-.057-.723-.06-1.349-.184-1.925-.477a4.9 4.9 0 0 1-2.14-2.142c-.294-.575-.418-1.2-.478-1.924-.057-.703-.057-1.574-.057-2.661v-4.247c0-1.475 0-2.457.298-3.275a4.9 4.9 0 0 1 2.919-2.919q.26-.095.548-.153V3a.9.9 0 0 1 .9-.9m-.9 3.815a3.1 3.1 0 0 0-1.776 1.82c-.141.385-.177.869-.186 1.95H19.1v-1.12a2.87 2.87 0 0 0-1.965-2.72V6.6a.9.9 0 1 1-1.8 0v-.9h-5.55c-.438 0-.807 0-1.12.005V6.6a.9.9 0 0 1-1.8 0zm12.235 5.57H4.9V14.6c0 1.135 0 1.932.052 2.554.05.611.143.974.286 1.253a3.1 3.1 0 0 0 1.355 1.355c.28.143.642.236 1.253.287.622.05 1.42.051 2.554.051h3.2c1.135 0 1.932 0 2.554-.052.611-.05.974-.143 1.253-.286a3.1 3.1 0 0 0 1.355-1.355c.143-.28.236-.642.287-1.253.05-.622.051-1.42.051-2.554z" clip-rule="evenodd"/></svg>
